X: 1
T: Ali Pasha (with high harmony)
O: trad Turkey
Z: John Chambers <jc@trillian.mit.edu>
%P: ABB
M: 5/4
L: 1/4
K: C
"A"\
|: "C"[Gc][Gc][ce] "C"[c2e2] | [c/e/][B/d/] [B/d/][A/c/] [c/e/][B/d/] "G7"[B2d2] \
| [Bd] [Ac] [G/B/][A/c/] "F"[A2c2] | [A/c/][G/B/] [G/B/][F/A/] [A/c/-][G/c/] "C"[G2c2] :|
"B"\
|: "F"[Fc][Af][Af] "G7"[Af][G/e/][F/d/] | "C"[Ec][Ge][Gd] "A7"[G^c-][F/c/-][E/c/] \
| "Dm"[DA][Fd][Fd] "C"[E/c/][D/B/][CG] | "G7"[DG] [E/G/][D/A/] [C/G/][B,/F/] "C"[C2E2] :|
